Newaita-dark/apps/64/com.github.kjlaw89.archetype.svg

<svg height="64pt" viewBox="0 0 64 64" width="64pt" xmlns="http://www.w3.org/2000/svg" xmlns:xlink="http://www.w3.org/1999/xlink"><linearGradient id="a" gradientUnits="userSpaceOnUse" x1="31.753043" x2="31.753043" y1="56.067868" y2="58.71395575004"><stop offset="0" stop-opacity=".27451"/><stop offset="1" stop-opacity="0"/></linearGradient><linearGradient id="b"><stop offset="0" stop-opacity=".313725"/><stop offset=".222222" stop-opacity=".27451"/><stop offset="1" stop-opacity="0"/></linearGradient><radialGradient id="c" cx="450.90894" cy="189.57936" gradientTransform="matrix(.00000035 -.156265 -.281277 -.0000002 106.907382 127.190666)" gradientUnits="userSpaceOnUse" r="21.166656" xlink:href="#b"/><radialGradient id="d" cx="450.90894" cy="189.57936" gradientTransform="matrix(-.00000035 .156265 .281277 .0000002 -43.401318 -15.05496)" gradientUnits="userSpaceOnUse" r="21.166656" xlink:href="#b"/><radialGradient id="e" cx="450.90894" cy="189.57936" gradientTransform="matrix(-.00000035 -.156265 .281277 -.0000002 -43.401318 127.190666)" gradientUnits="userSpaceOnUse" r="21.166656" xlink:href="#b"/><radialGradient id="f" cx="450.90894" cy="189.57936" gradientTransform="matrix(.00000035 .156265 -.281277 .0000002 106.907378 -15.054961)" gradientUnits="userSpaceOnUse" r="21.166656" xlink:href="#b"/><linearGradient id="g"><stop offset="0" stop-color="#7e57c2"/><stop offset="1" stop-color="#9575cd"/></linearGradient><linearGradient id="h" gradientTransform="matrix(.150699 0 0 .434824 -11.708026 67.282697)" gradientUnits="userSpaceOnUse" x1="306.91666" x2="305.95456" xlink:href="#g" y1="-25.791676" y2="-135.32916"/><linearGradient id="i" gradientTransform="matrix(4.556143 0 0 13.146184 -353.97266 2034.1802)" gradientUnits="userSpaceOnUse" x1="306.91666" x2="305.95456" xlink:href="#g" y1="-25.791676" y2="-135.32916"/><linearGradient id="j" gradientUnits="userSpaceOnUse" x1="333.37491475" x2="333.37491475" y1="-121.04159841667" y2="-89.29164325"><stop offset="0" stop-color="#66bb6a"/><stop offset="1" stop-color="#81c784"/></linearGradient><linearGradient id="k" gradientUnits="userSpaceOnUse" x1="386.29150925" x2="386.29150925" y1="-121.04167558333" y2="-89.29163575"><stop offset="0" stop-color="#ffd54f"/><stop offset="1" stop-color="#ffe082"/></linearGradient><linearGradient id="l" gradientUnits="userSpaceOnUse" x1="439.2083" x2="439.2083" y1="-121.0416835" y2="-89.291686"><stop offset="0" stop-color="#e57373"/><stop offset="1" stop-color="#ef9a9a"/></linearGradient><linearGradient id="m" gradientUnits="userSpaceOnUse" x1="31.753048" x2="31.753048" y1="49.45265050008" y2="22.99177624999"><stop offset="0" stop-color="#bdbdbd"/><stop offset="1" stop-color="#e0e0e0"/></linearGradient><path d="m9.261719 56.066406h44.984375v2.648438h-44.984375zm0 0" fill="url(#a)"/><path d="m54.246094 56.066406h5.289062v-2.644531h-5.289062zm0 0" fill="url(#c)"/><path d="m9.261719 56.066406h-5.292969v2.648438h5.292969zm0 0" fill="url(#d)"/><path d="m9.261719 56.066406h-5.292969v-2.644531h5.292969zm0 0" fill="url(#e)"/><path d="m54.246094 56.066406h5.289062v2.648438h-5.289062zm0 0" fill="url(#f)"/><path d="m6.613281 8.4375h50.277344c1.460937 0 2.644531 1.183594 2.644531 2.648438v42.335937c0 1.460937-1.183594 2.644531-2.644531 2.644531h-50.277344c-1.460937 0-2.644531-1.183594-2.644531-2.644531v-42.335937c0-1.464844 1.183594-2.648438 2.644531-2.648438zm0 0" fill="url(#h)"/><path d="m3.96875 19.023438h55.566406v1.320312h-55.566406zm0 0" fill="#0a0d0e" fill-opacity=".235294"/><path d="m6.613281 56.09375c-1.464843 0-2.644531-1.179688-2.644531-2.644531v-.6875c0 1.464843 1.179688 2.644531 2.644531 2.644531h50.277344c1.464844 0 2.644531-1.179688 2.644531-2.644531v.6875c0 1.464843-1.179687 2.644531-2.644531 2.644531zm0 0" fill-opacity=".235294"/><path d="m199.941539 255.093753c-44.28711 0-79.952996 35.665886-79.952996 80.071095v239.977086h1679.957704v-239.977086c0-44.405209-35.665886-80.071095-79.952996-80.071095zm0 0" fill="url(#i)" stroke="#212121" stroke-linecap="round" stroke-width="11.338583" transform="scale(.0330761)"/><path d="m6.613281 8.589844c-1.464843 0-2.644531 1.179687-2.644531 2.648437v.6875c0-1.46875 1.179688-2.648437 2.644531-2.648437h50.277344c1.464844 0 2.644531 1.179687 2.644531 2.648437v-.6875c0-1.46875-1.179687-2.648437-2.644531-2.648437zm0 0" fill="#fff" fill-opacity=".392157"/><path d="m6.613281 8.25c-1.566406 0-2.832031 1.269531-2.832031 2.835938v42.335937c0 1.566406 1.265625 2.832031 2.832031 2.832031h50.277344c1.566406 0 2.832031-1.265625 2.832031-2.832031v-42.335937c0-1.566407-1.265625-2.835938-2.832031-2.835938zm0 .375h50.277344c1.367187 0 2.457031 1.09375 2.457031 2.460938v42.335937c0 1.367187-1.089844 2.457031-2.457031 2.457031h-50.277344c-1.363281 0-2.457031-1.089844-2.457031-2.457031v-42.335937c0-1.367188 1.09375-2.460938 2.457031-2.460938zm0 0" fill="#212121"/><g stroke="#212121" stroke-linecap="round"><path d="m333.374414-121.040223c8.780412 0 15.873484 7.093073 15.873484 15.873484 0 8.780412-7.093072 15.873485-15.873484 15.873485-8.780411 0-15.873484-7.093073-15.873484-15.873485 0-8.780411 7.093073-15.873484 15.873484-15.873484zm0 0" fill="url(#j)" stroke-width="3" transform="matrix(.125012 0 0 .125012 0 26.877566)"/><path d="m386.30686-121.040223c8.749164 0 15.873484 7.093073 15.873484 15.873484 0 8.780412-7.12432 15.873485-15.873484 15.873485-8.780412 0-15.904732-7.093073-15.904732-15.873485 0-8.780411 7.12432-15.873484 15.904732-15.873484zm0 0" fill="url(#k)" stroke-width="3" transform="matrix(.125012 0 0 .125012 0 26.877566)"/><path d="m439.208058-121.040223c8.780411 0 15.873484 7.093073 15.873484 15.873484 0 8.780412-7.093073 15.873485-15.873484 15.873485-8.780412 0-15.873484-7.093073-15.873484-15.873485 0-8.780411 7.093072-15.873484 15.873484-15.873484zm0 0" fill="url(#l)" stroke-width="3" transform="matrix(.125012 0 0 .125012 0 26.877566)"/></g><path d="m33.074219 22.992188c-.519531 0-.992188.308593-1.207031.785156l-10.582032 23.816406c-.386718.871094.25 1.855469 1.207032 1.855469h3.96875c.53125 0 1.015624-.320313 1.21875-.8125l2.96875-7.125h4.617187l1.136719 6.835937c.109375.636719.660156 1.101563 1.304687 1.101563h3.96875c.832031 0 1.457031-.757813 1.296875-1.570313l-4.628906-23.816406c-.121094-.621094-.667969-1.070312-1.296875-1.070312zm.664062 5.292968h.660157l.664062 9.261719h-3.308594zm0 0" fill="url(#m)"/><path d="m33.074219 23.15625c-.519531 0-.992188.308594-1.207031.785156l-10.582032 23.816406c-.117187.261719-.140625.53125-.089844.78125.015626-.09375.046876-.191406.089844-.289062l10.582032-23.8125c.214843-.480469.6875-.785156 1.207031-.785156h3.972656c.628906 0 1.175781.445312 1.296875 1.066406l4.628906 23.816406v.007813c.03125-.160157.035156-.332031 0-.503907l-4.628906-23.8125c-.121094-.621093-.667969-1.070312-1.296875-1.070312zm-1.214844 14.550781-.105469.496094h3.308594l-.039062-.496094zm0 0" fill="#fbfbfb"/><path d="m33.738281 28.46875-1.984375 9.261719h.175782l1.808593-8.4375h.660157l.601562 8.4375h.0625l-.664062-9.261719zm-3.089843 13.230469-2.96875 7.125c-.203126.492187-.6875.8125-1.21875.8125h-3.96875c-.605469 0-1.085938-.398438-1.253907-.910157-.277343.839844.34375 1.730469 1.253907 1.730469h3.96875c.53125 0 1.015624-.320312 1.21875-.8125l2.96875-7.125h4.617187l1.136719 6.835938c.109375.636719.660156 1.101562 1.304687 1.101562h3.96875c.832031 0 1.457031-.757812 1.296875-1.570312l-.035156-.179688c-.164062.53125-.660156.929688-1.261719.929688h-3.96875c-.644531 0-1.195312-.46875-1.304687-1.105469l-1.136719-6.832031zm0 0" fill-opacity=".235294"/><path d="m999.943893 695.130478c-15.707162 0-29.997136 9.329817-36.492579 23.73789l-319.930082 720.049358c-11.691797 26.336069 7.558333 56.097006 36.492579 56.097006h119.988543c16.061458 0 30.705729-9.684114 36.846875-24.564583l89.75521-215.412503h139.59297l34.366798 206.67318c3.30677 19.25013 19.958724 33.303906 39.445052 33.303906h119.988543c25.155079 0 44.050912-22.911198 39.208855-47.475781l-139.947267-720.049359c-3.661068-18.777734-20.194923-32.359114-39.208855-32.359114zm20.076823 160.02409h19.958724l20.076823 280.012634h-100.029819zm0 0" fill="none" stroke="#212121" stroke-linecap="round" stroke-linejoin="round" stroke-width="11.338583" transform="scale(.0330761)"/></svg>

<?xml version="1.0" encoding="UTF-8"?>
<svg xmlns="http://www.w3.org/2000/svg" xmlns:xlink="http://www.w3.org/1999/xlink" width="64pt" height="64pt" viewBox="0 0 64 64" version="1.1">
<defs>
<linearGradient id="linear0" gradientUnits="userSpaceOnUse" x1="254" y1="233.5" x2="254" y2="254.66667" gradientTransform="matrix(0.125012,0,0,0.125012,-0.00000500048,26.877566)">
<stop offset="0" style="stop-color:rgb(0%,0%,0%);stop-opacity:0.27451;"/>
<stop offset="1" style="stop-color:rgb(0%,0%,0%);stop-opacity:0;"/>
</linearGradient>
<radialGradient id="radial0" gradientUnits="userSpaceOnUse" cx="450.90894" cy="189.57936" fx="450.90894" fy="189.57936" r="21.166656" gradientTransform="matrix(0.000000348341,-0.156265,-0.281277,-0.000000203077,106.907382,127.190666)">
<stop offset="0" style="stop-color:rgb(0%,0%,0%);stop-opacity:0.313725;"/>
<stop offset="0.222222" style="stop-color:rgb(0%,0%,0%);stop-opacity:0.27451;"/>
<stop offset="1" style="stop-color:rgb(0%,0%,0%);stop-opacity:0;"/>
</radialGradient>
<radialGradient id="radial1" gradientUnits="userSpaceOnUse" cx="450.90894" cy="189.57936" fx="450.90894" fy="189.57936" r="21.166656" gradientTransform="matrix(-0.000000348341,0.156265,0.281277,0.000000203077,-43.401318,-15.05496)">
<stop offset="0" style="stop-color:rgb(0%,0%,0%);stop-opacity:0.313725;"/>
<stop offset="0.222222" style="stop-color:rgb(0%,0%,0%);stop-opacity:0.27451;"/>
<stop offset="1" style="stop-color:rgb(0%,0%,0%);stop-opacity:0;"/>
</radialGradient>
<radialGradient id="radial2" gradientUnits="userSpaceOnUse" cx="450.90894" cy="189.57936" fx="450.90894" fy="189.57936" r="21.166656" gradientTransform="matrix(-0.000000348341,-0.156265,0.281277,-0.000000203077,-43.401318,127.190666)">
<stop offset="0" style="stop-color:rgb(0%,0%,0%);stop-opacity:0.313725;"/>
<stop offset="0.222222" style="stop-color:rgb(0%,0%,0%);stop-opacity:0.27451;"/>
<stop offset="1" style="stop-color:rgb(0%,0%,0%);stop-opacity:0;"/>
</radialGradient>
<radialGradient id="radial3" gradientUnits="userSpaceOnUse" cx="450.90894" cy="189.57936" fx="450.90894" fy="189.57936" r="21.166656" gradientTransform="matrix(0.000000348341,0.156265,-0.281277,0.000000203077,106.907378,-15.054961)">
<stop offset="0" style="stop-color:rgb(0%,0%,0%);stop-opacity:0.313725;"/>
<stop offset="0.222222" style="stop-color:rgb(0%,0%,0%);stop-opacity:0.27451;"/>
<stop offset="1" style="stop-color:rgb(0%,0%,0%);stop-opacity:0;"/>
</radialGradient>
<linearGradient id="linear1" gradientUnits="userSpaceOnUse" x1="306.91666" y1="-25.791676" x2="305.95456" y2="-135.32916" gradientTransform="matrix(0.150699,0,0,0.434824,-11.708026,67.282697)">
<stop offset="0" style="stop-color:rgb(49.411765%,34.117647%,76.078431%);stop-opacity:1;"/>
<stop offset="1" style="stop-color:rgb(58.431373%,45.882353%,80.392157%);stop-opacity:1;"/>
</linearGradient>
<linearGradient id="linear2" gradientUnits="userSpaceOnUse" x1="306.91666" y1="-25.791676" x2="305.95456" y2="-135.32916" gradientTransform="matrix(4.556143,0,0,13.146184,-353.97266,2034.1802)">
<stop offset="0" style="stop-color:rgb(49.411765%,34.117647%,76.078431%);stop-opacity:1;"/>
<stop offset="1" style="stop-color:rgb(58.431373%,45.882353%,80.392157%);stop-opacity:1;"/>
</linearGradient>
<linearGradient id="linear3" gradientUnits="userSpaceOnUse" x1="349.25" y1="-158.08333" x2="349.25" y2="-115.75" gradientTransform="matrix(0.749999,0,0,0.749999,71.437764,-2.479259)">
<stop offset="0" style="stop-color:rgb(40%,73.333333%,41.568627%);stop-opacity:1;"/>
<stop offset="1" style="stop-color:rgb(50.588235%,78.039216%,51.764706%);stop-opacity:1;"/>
</linearGradient>
<linearGradient id="linear4" gradientUnits="userSpaceOnUse" x1="349.25" y1="-158.08333" x2="349.25" y2="-115.75" gradientTransform="matrix(0.750001,0,0,0.750001,124.35366,-2.47902)">
<stop offset="0" style="stop-color:rgb(100%,83.529412%,30.980392%);stop-opacity:1;"/>
<stop offset="1" style="stop-color:rgb(100%,87.843137%,50.980392%);stop-opacity:1;"/>
</linearGradient>
<linearGradient id="linear5" gradientUnits="userSpaceOnUse" x1="349.25" y1="-158.08333" x2="349.25" y2="-115.75" gradientTransform="matrix(0.75,0,0,0.75,177.2708,-2.479186)">
<stop offset="0" style="stop-color:rgb(89.803922%,45.098039%,45.098039%);stop-opacity:1;"/>
<stop offset="1" style="stop-color:rgb(93.72549%,60.392157%,60.392157%);stop-opacity:1;"/>
</linearGradient>
<linearGradient id="linear6" gradientUnits="userSpaceOnUse" x1="254" y1="180.58334" x2="254" y2="-31.083334" gradientTransform="matrix(0.125012,0,0,0.125012,0,26.877566)">
<stop offset="0" style="stop-color:rgb(74.117647%,74.117647%,74.117647%);stop-opacity:1;"/>
<stop offset="1" style="stop-color:rgb(87.843137%,87.843137%,87.843137%);stop-opacity:1;"/>
</linearGradient>
</defs>
<g id="surface1">
<path style=" stroke:none;fill-rule:nonzero;fill:url(#linear0);" d="M 9.261719 56.066406 L 54.246094 56.066406 L 54.246094 58.714844 L 9.261719 58.714844 Z M 9.261719 56.066406 "/>
<path style=" stroke:none;fill-rule:nonzero;fill:url(#radial0);" d="M 54.246094 56.066406 L 59.535156 56.066406 L 59.535156 53.421875 L 54.246094 53.421875 Z M 54.246094 56.066406 "/>
<path style=" stroke:none;fill-rule:nonzero;fill:url(#radial1);" d="M 9.261719 56.066406 L 3.96875 56.066406 L 3.96875 58.714844 L 9.261719 58.714844 Z M 9.261719 56.066406 "/>
<path style=" stroke:none;fill-rule:nonzero;fill:url(#radial2);" d="M 9.261719 56.066406 L 3.96875 56.066406 L 3.96875 53.421875 L 9.261719 53.421875 Z M 9.261719 56.066406 "/>
<path style=" stroke:none;fill-rule:nonzero;fill:url(#radial3);" d="M 54.246094 56.066406 L 59.535156 56.066406 L 59.535156 58.714844 L 54.246094 58.714844 Z M 54.246094 56.066406 "/>
<path style=" stroke:none;fill-rule:nonzero;fill:url(#linear1);" d="M 6.613281 8.4375 L 56.890625 8.4375 C 58.351562 8.4375 59.535156 9.621094 59.535156 11.085938 L 59.535156 53.421875 C 59.535156 54.882812 58.351562 56.066406 56.890625 56.066406 L 6.613281 56.066406 C 5.152344 56.066406 3.96875 54.882812 3.96875 53.421875 L 3.96875 11.085938 C 3.96875 9.621094 5.152344 8.4375 6.613281 8.4375 Z M 6.613281 8.4375 "/>
<path style=" stroke:none;fill-rule:nonzero;fill:rgb(3.921569%,5.098039%,5.490196%);fill-opacity:0.235294;" d="M 3.96875 19.023438 L 59.535156 19.023438 L 59.535156 20.34375 L 3.96875 20.34375 Z M 3.96875 19.023438 "/>
<path style=" stroke:none;fill-rule:nonzero;fill:rgb(0%,0%,0%);fill-opacity:0.235294;" d="M 6.613281 56.09375 C 5.148438 56.09375 3.96875 54.914062 3.96875 53.449219 L 3.96875 52.761719 C 3.96875 54.226562 5.148438 55.40625 6.613281 55.40625 L 56.890625 55.40625 C 58.355469 55.40625 59.535156 54.226562 59.535156 52.761719 L 59.535156 53.449219 C 59.535156 54.914062 58.355469 56.09375 56.890625 56.09375 Z M 6.613281 56.09375 "/>
<path style="fill-rule:nonzero;fill:url(#linear2);stroke-width:11.338583;stroke-linecap:round;stroke-linejoin:miter;stroke:rgb(12.941176%,12.941176%,12.941176%);stroke-opacity:1;stroke-miterlimit:4;" d="M 199.941539 255.093753 C 155.654429 255.093753 119.988543 290.759639 119.988543 335.164848 L 119.988543 575.141934 L 1799.946247 575.141934 L 1799.946247 335.164848 C 1799.946247 290.759639 1764.280361 255.093753 1719.993251 255.093753 Z M 199.941539 255.093753 " transform="matrix(0.0330761,0,0,0.0330761,0,0)"/>
<path style=" stroke:none;fill-rule:nonzero;fill:rgb(100%,100%,100%);fill-opacity:0.392157;" d="M 6.613281 8.589844 C 5.148438 8.589844 3.96875 9.769531 3.96875 11.238281 L 3.96875 11.925781 C 3.96875 10.457031 5.148438 9.277344 6.613281 9.277344 L 56.890625 9.277344 C 58.355469 9.277344 59.535156 10.457031 59.535156 11.925781 L 59.535156 11.238281 C 59.535156 9.769531 58.355469 8.589844 56.890625 8.589844 Z M 6.613281 8.589844 "/>
<path style=" stroke:none;fill-rule:nonzero;fill:rgb(12.941176%,12.941176%,12.941176%);fill-opacity:1;" d="M 6.613281 8.25 C 5.046875 8.25 3.78125 9.519531 3.78125 11.085938 L 3.78125 53.421875 C 3.78125 54.988281 5.046875 56.253906 6.613281 56.253906 L 56.890625 56.253906 C 58.457031 56.253906 59.722656 54.988281 59.722656 53.421875 L 59.722656 11.085938 C 59.722656 9.519531 58.457031 8.25 56.890625 8.25 Z M 6.613281 8.625 L 56.890625 8.625 C 58.257812 8.625 59.347656 9.71875 59.347656 11.085938 L 59.347656 53.421875 C 59.347656 54.789062 58.257812 55.878906 56.890625 55.878906 L 6.613281 55.878906 C 5.25 55.878906 4.15625 54.789062 4.15625 53.421875 L 4.15625 11.085938 C 4.15625 9.71875 5.25 8.625 6.613281 8.625 Z M 6.613281 8.625 "/>
<path style="fill-rule:nonzero;fill:url(#linear3);stroke-width:3;stroke-linecap:round;stroke-linejoin:miter;stroke:rgb(12.941176%,12.941176%,12.941176%);stroke-opacity:1;stroke-miterlimit:4;" d="M 333.374414 -121.040223 C 342.154826 -121.040223 349.247898 -113.94715 349.247898 -105.166739 C 349.247898 -96.386327 342.154826 -89.293254 333.374414 -89.293254 C 324.594003 -89.293254 317.50093 -96.386327 317.50093 -105.166739 C 317.50093 -113.94715 324.594003 -121.040223 333.374414 -121.040223 Z M 333.374414 -121.040223 " transform="matrix(0.125012,0,0,0.125012,0,26.877566)"/>
<path style="fill-rule:nonzero;fill:url(#linear4);stroke-width:3;stroke-linecap:round;stroke-linejoin:miter;stroke:rgb(12.941176%,12.941176%,12.941176%);stroke-opacity:1;stroke-miterlimit:4;" d="M 386.30686 -121.040223 C 395.056024 -121.040223 402.180344 -113.94715 402.180344 -105.166739 C 402.180344 -96.386327 395.056024 -89.293254 386.30686 -89.293254 C 377.526448 -89.293254 370.402128 -96.386327 370.402128 -105.166739 C 370.402128 -113.94715 377.526448 -121.040223 386.30686 -121.040223 Z M 386.30686 -121.040223 " transform="matrix(0.125012,0,0,0.125012,0,26.877566)"/>
<path style="fill-rule:nonzero;fill:url(#linear5);stroke-width:3;stroke-linecap:round;stroke-linejoin:miter;stroke:rgb(12.941176%,12.941176%,12.941176%);stroke-opacity:1;stroke-miterlimit:4;" d="M 439.208058 -121.040223 C 447.988469 -121.040223 455.081542 -113.94715 455.081542 -105.166739 C 455.081542 -96.386327 447.988469 -89.293254 439.208058 -89.293254 C 430.427646 -89.293254 423.334574 -96.386327 423.334574 -105.166739 C 423.334574 -113.94715 430.427646 -121.040223 439.208058 -121.040223 Z M 439.208058 -121.040223 " transform="matrix(0.125012,0,0,0.125012,0,26.877566)"/>
<path style=" stroke:none;fill-rule:nonzero;fill:url(#linear6);" d="M 33.074219 22.992188 C 32.554688 22.992188 32.082031 23.300781 31.867188 23.777344 L 21.285156 47.59375 C 20.898438 48.464844 21.535156 49.449219 22.492188 49.449219 L 26.460938 49.449219 C 26.992188 49.449219 27.476562 49.128906 27.679688 48.636719 L 30.648438 41.511719 L 35.265625 41.511719 L 36.402344 48.347656 C 36.511719 48.984375 37.0625 49.449219 37.707031 49.449219 L 41.675781 49.449219 C 42.507812 49.449219 43.132812 48.691406 42.972656 47.878906 L 38.34375 24.0625 C 38.222656 23.441406 37.675781 22.992188 37.046875 22.992188 Z M 33.738281 28.285156 L 34.398438 28.285156 L 35.0625 37.546875 L 31.753906 37.546875 Z M 33.738281 28.285156 "/>
<path style=" stroke:none;fill-rule:nonzero;fill:rgb(98.431373%,98.431373%,98.431373%);fill-opacity:1;" d="M 33.074219 23.15625 C 32.554688 23.15625 32.082031 23.464844 31.867188 23.941406 L 21.285156 47.757812 C 21.167969 48.019531 21.144531 48.289062 21.195312 48.539062 C 21.210938 48.445312 21.242188 48.347656 21.285156 48.25 L 31.867188 24.4375 C 32.082031 23.957031 32.554688 23.652344 33.074219 23.652344 L 37.046875 23.652344 C 37.675781 23.652344 38.222656 24.097656 38.34375 24.71875 L 42.972656 48.535156 C 42.972656 48.535156 42.972656 48.539062 42.972656 48.542969 C 43.003906 48.382812 43.007812 48.210938 42.972656 48.039062 L 38.34375 24.226562 C 38.222656 23.605469 37.675781 23.15625 37.046875 23.15625 Z M 31.859375 37.707031 L 31.753906 38.203125 L 35.0625 38.203125 L 35.023438 37.707031 Z M 31.859375 37.707031 "/>
<path style=" stroke:none;fill-rule:nonzero;fill:rgb(0%,0%,0%);fill-opacity:0.235294;" d="M 33.738281 28.46875 L 31.753906 37.730469 L 31.929688 37.730469 L 33.738281 29.292969 L 34.398438 29.292969 L 35 37.730469 L 35.0625 37.730469 L 34.398438 28.46875 Z M 30.648438 41.699219 L 27.679688 48.824219 C 27.476562 49.316406 26.992188 49.636719 26.460938 49.636719 L 22.492188 49.636719 C 21.886719 49.636719 21.40625 49.238281 21.238281 48.726562 C 20.960938 49.566406 21.582031 50.457031 22.492188 50.457031 L 26.460938 50.457031 C 26.992188 50.457031 27.476562 50.136719 27.679688 49.644531 L 30.648438 42.519531 L 35.265625 42.519531 L 36.402344 49.355469 C 36.511719 49.992188 37.0625 50.457031 37.707031 50.457031 L 41.675781 50.457031 C 42.507812 50.457031 43.132812 49.699219 42.972656 48.886719 L 42.9375 48.707031 C 42.773438 49.238281 42.277344 49.636719 41.675781 49.636719 L 37.707031 49.636719 C 37.0625 49.636719 36.511719 49.167969 36.402344 48.53125 L 35.265625 41.699219 Z M 30.648438 41.699219 "/>
<path style="fill:none;stroke-width:11.338583;stroke-linecap:round;stroke-linejoin:round;stroke:rgb(12.941176%,12.941176%,12.941176%);stroke-opacity:1;stroke-miterlimit:4;" d="M 999.943893 695.130478 C 984.236731 695.130478 969.946757 704.460295 963.451314 718.868368 L 643.521232 1438.917726 C 631.829435 1465.253795 651.079565 1495.014732 680.013811 1495.014732 L 800.002354 1495.014732 C 816.063812 1495.014732 830.708083 1485.330618 836.849229 1470.450149 L 926.604439 1255.037646 L 1066.197409 1255.037646 L 1100.564207 1461.710826 C 1103.870977 1480.960956 1120.522931 1495.014732 1140.009259 1495.014732 L 1259.997802 1495.014732 C 1285.152881 1495.014732 1304.048714 1472.103534 1299.206657 1447.538951 L 1159.25939 727.489592 C 1155.598322 708.711858 1139.064467 695.130478 1120.050535 695.130478 Z M 1020.020716 855.154568 L 1039.97944 855.154568 L 1060.056263 1135.167202 L 960.026444 1135.167202 Z M 1020.020716 855.154568 " transform="matrix(0.0330761,0,0,0.0330761,0,0)"/>
</g>
</svg>
